elide/concept/src/miniseries.svg

<svg clip-rule="evenodd" fill-rule="evenodd" stroke-linejoin="round" stroke-miterlimit="2" viewBox="0 0 100 16" xmlns="http://www.w3.org/2000/svg"><g fill="#01b7ff"><path d="m97.579 154h130.124c6.627 0 12 5.373 12 12 0 6.627-5.373 12-12 12h-130.124c3.323-2.933 5.421-7.224 5.421-12s-2.098-9.067-5.421-12z" transform="matrix(.113744 0 0 .113744 -8.03081 -4.66009)"/><path d="m75 155.422v-92.313c0-10.219 8.284-18.502 18.502-18.502h127.698c10.219 0 18.503 8.283 18.503 18.502v92.308c-2.932-3.322-7.222-5.417-12-5.417h-3v-90.393h-134.703v90.393h-3c-4.776 0-9.067 2.098-12 5.422z" transform="matrix(.113744 0 0 .113744 -8.03081 -4.66009)"/><circle cx="1.864921728" cy="14.221420784" r="1.364915216" stroke-width=".066416"/></g><path d="m185 67.5c24.836 0 35 8.183 35 27.5s-10.164 27.5-35 27.5-35-8.183-35-27.5 10.164-27.5 35-27.5z" fill="#fc593d" transform="matrix(.16544597731 0 0 .16544597731 -20.7405098969 -8.28096534992)"/><path d="m184.01 133.695c.894-1.549 2.547-2.503 4.335-2.503s3.44.954 4.334 2.503c4.362 7.554 11.05 19.138 15.411 26.693.894 1.548.894 3.456 0 5.005-.894 1.548-2.546 2.502-4.334 2.502h-30.823c-1.788 0-3.44-.954-4.334-2.502-.894-1.549-.894-3.457 0-5.005 4.361-7.555 11.05-19.139 15.411-26.693z" fill="#fff" transform="matrix(0 .11156501206 -.11156501206 0 27.0043876426 -13.5763150385)"/><path d="m280.55 127.652c1.41 0 2.597-.259 3.566-.761.996-.516 1.744-1.202 2.25-2.053.509-.853.763-1.779.763-2.777 0-1.134-.249-2.06-.725-2.782-.472-.718-1.098-1.295-1.879-1.731-.732-.409-1.542-.767-2.427-1.074-.809-.264-1.52-.509-2.141-.738-.554-.204-.994-.45-1.314-.749-.265-.246-.385-.585-.385-1.006 0-.498.159-.884.505-1.145.385-.29.863-.419 1.429-.406.663.001 1.177.173 1.543.552.36.373.551.8.564 1.285l.013.486h4.388l-.016-.516c-.036-1.124-.336-2.092-.889-2.908-.552-.814-1.31-1.45-2.278-1.902-.943-.441-2.03-.665-3.263-.665-1.216 0-2.291.22-3.225.651-.959.444-1.713 1.071-2.266 1.877-.558.814-.834 1.787-.816 2.922 0 1.341.405 2.417 1.191 3.23.746.773 1.825 1.413 3.247 1.904.826.281 1.6.545 2.325.792.651.222 1.176.506 1.568.861.337.305.49.738.49 1.285 0 .513-.182.925-.557 1.231-.415.339-.98.493-1.685.493-.82 0-1.467-.217-1.933-.682-.461-.461-.703-1.03-.731-1.705l-.019-.48h-4.323l.007.507c.018 1.279.34 2.362.953 3.254.611.89 1.445 1.575 2.505 2.051 1.031.463 2.219.699 3.565.699zm-71.41 0c1.409 0 2.597-.259 3.565-.761.996-.516 1.744-1.202 2.251-2.053.508-.853.762-1.779.762-2.777 0-1.134-.249-2.06-.725-2.782-.472-.718-1.098-1.295-1.879-1.731-.732-.409-1.541-.767-2.427-1.074-.809-.264-1.52-.509-2.141-.738-.553-.204-.994-.45-1.314-.749-.265-.246-.385-.585-.385-1.006 0-.498.16-.884.506-1.145.384-.29.862-.419 1.429-.406.663.001 1.177.173 1.542.552.36.373.551.8.564 1.285l.013.486h4.389l-.017-.516c-.036-1.124-.336-2.092-.889-2.908-.552-.814-1.31-1.45-2.278-1.902-.942-.441-2.03-.665-3.263-.665-1.216 0-2.29.22-3.224.651-.96.444-1.714 1.071-2.266 1.877-.558.814-.835 1.787-.817 2.922 0 1.341.406 2.417 1.191 3.23.746.773 1.826 1.413 3.248 1.904.826.281 1.6.545 2.324.792.652.222 1.176.506 1.568.861.337.305.491.738.491 1.285 0 .513-.183.925-.558 1.231-.415.339-.98.493-1.685.493-.819 0-1.467-.217-1.932-.682-.462-.461-.704-1.03-.731-1.705l-.02-.48h-4.323l.007.507c.018 1.279.341 2.362.953 3.254.611.89 1.445 1.575 2.505 2.051 1.032.463 2.22.699 3.566.699zm-54.266-8.243 5.129-10.351h4.566v18.297h-4.163v-10.351l-4.011 7.88h-3.109l-4.012-7.88v10.351h-4.163v-18.297h4.565zm83.528 1.126v6.82h-4.163v-18.297h6.85c1.478 0 2.695.26 3.654.762.991.518 1.728 1.221 2.219 2.102.486.872.73 1.838.73 2.9 0 1.151-.302 2.204-.905 3.158-.522.826-1.291 1.465-2.313 1.905l3.697 7.47h-4.755l-3.212-6.82zm24.388 3.275h8.129v3.545h-12.292v-18.297h12.292v3.546h-8.129v3.744h7.388v3.471h-7.388zm-75.574-3.72v-11.032h4.163v18.297h-3.93l-7.362-11.01v11.01h-4.163v-18.297h3.93zm63.652 7.265h4.163v-18.297h-4.163zm-55.893 0h4.163v-18.297h-4.163zm27.909-3.545h8.129v3.545h-12.292v-18.297h12.292v3.546h-8.129v3.744h7.388v3.471h-7.388zm-54.719 3.545h4.163v-18.297h-4.163zm70.237-10.142h2.489c.887 0 1.548-.185 1.964-.614.408-.422.6-.984.6-1.679 0-.675-.186-1.22-.585-1.626-.41-.417-1.085-.592-2.003-.592h-2.465z" fill-rule="nonzero" transform="matrix(.544833 0 0 .544833 -56.9373 -56.403)"/></svg>

<?xml version="1.0" encoding="UTF-8" standalone="no"?>
<!DOCTYPE svg PUBLIC "-//W3C//DTD SVG 1.1//EN" "http://www.w3.org/Graphics/SVG/1.1/DTD/svg11.dtd">
<svg width="100%" height="100%" viewBox="0 0 100 16" version="1.1" xmlns="http://www.w3.org/2000/svg" xmlns:xlink="http://www.w3.org/1999/xlink" xml:space="preserve" xmlns:serif="http://www.serif.com/" style="fill-rule:evenodd;clip-rule:evenodd;stroke-linejoin:round;stroke-miterlimit:2;">
    <g transform="matrix(0.113744,0,0,0.113744,-8.03081,-4.66009)">
        <path d="M97.579,154L227.703,154C234.33,154 239.703,159.373 239.703,166L239.703,166C239.703,172.627 234.33,178 227.703,178L97.579,178C100.902,175.067 103,170.776 103,166C103,161.224 100.902,156.933 97.579,154Z" style="fill:rgb(1,183,255);"/>
    </g>
    <g transform="matrix(0.113744,0,0,0.113744,-8.03081,-4.66009)">
        <path d="M75,155.422L75,63.109C75,52.89 83.284,44.607 93.502,44.607L221.2,44.607C231.419,44.607 239.703,52.89 239.703,63.109L239.703,155.417C236.771,152.095 232.481,150 227.703,150L224.703,150L224.703,59.607L90,59.607L90,150L87,150C82.224,150 77.933,152.098 75,155.422Z" style="fill:rgb(1,183,255);"/>
    </g>
    <g transform="matrix(0.066416,0,0,0.066416,-4.94491,6.55376)">
        <circle cx="102.533" cy="115.449" r="20.551" style="fill:rgb(1,183,255);"/>
    </g>
    <g transform="matrix(0.0795291,0,0,0.0795291,-6.03884,-3.45743)">
        <g transform="matrix(2.08032,0,0,2.08032,-184.859,-60.6512)">
            <path d="M185,67.5C209.836,67.5 220,75.683 220,95C220,114.317 209.836,122.5 185,122.5C160.164,122.5 150,114.317 150,95C150,75.683 160.164,67.5 185,67.5Z" style="fill:rgb(252,89,61);"/>
        </g>
        <g transform="matrix(8.58983e-17,1.40282,-1.40282,8.58983e-17,415.486,-127.235)">
            <path d="M184.01,133.695C184.904,132.146 186.557,131.192 188.345,131.192C190.133,131.192 191.785,132.146 192.679,133.695C197.041,141.249 203.729,152.833 208.09,160.388C208.984,161.936 208.984,163.844 208.09,165.393C207.196,166.941 205.544,167.895 203.756,167.895L172.933,167.895C171.145,167.895 169.493,166.941 168.599,165.393C167.705,163.844 167.705,161.936 168.599,160.388C172.96,152.833 179.649,141.249 184.01,133.695Z" style="fill:white;"/>
        </g>
    </g>
    <g transform="matrix(0.544833,0,0,0.544833,-56.9373,-56.403)">
        <path d="M280.55,127.652C281.96,127.652 283.147,127.393 284.116,126.891C285.112,126.375 285.86,125.689 286.366,124.838C286.875,123.985 287.129,123.059 287.129,122.061C287.129,120.927 286.88,120.001 286.404,119.279C285.932,118.561 285.306,117.984 284.525,117.548C283.793,117.139 282.983,116.781 282.098,116.474C281.289,116.21 280.578,115.965 279.957,115.736C279.403,115.532 278.963,115.286 278.643,114.987C278.378,114.741 278.258,114.402 278.258,113.981C278.258,113.483 278.417,113.097 278.763,112.836C279.148,112.546 279.626,112.417 280.192,112.43C280.855,112.431 281.369,112.603 281.735,112.982C282.095,113.355 282.286,113.782 282.299,114.267L282.312,114.753L286.7,114.753L286.684,114.237C286.648,113.113 286.348,112.145 285.795,111.329C285.243,110.515 284.485,109.879 283.517,109.427C282.574,108.986 281.487,108.762 280.254,108.762C279.038,108.762 277.963,108.982 277.029,109.413C276.07,109.857 275.316,110.484 274.763,111.29C274.205,112.104 273.929,113.077 273.947,114.212C273.947,115.553 274.352,116.629 275.138,117.442C275.884,118.215 276.963,118.855 278.385,119.346C279.211,119.627 279.985,119.891 280.71,120.138C281.361,120.36 281.886,120.644 282.278,120.999C282.615,121.304 282.768,121.737 282.768,122.284C282.768,122.797 282.586,123.209 282.211,123.515C281.796,123.854 281.231,124.008 280.526,124.008C279.706,124.008 279.059,123.791 278.593,123.326C278.132,122.865 277.89,122.296 277.862,121.621L277.843,121.141L273.52,121.141L273.527,121.648C273.545,122.927 273.867,124.01 274.48,124.902C275.091,125.792 275.925,126.477 276.985,126.953C278.016,127.416 279.204,127.652 280.55,127.652ZM209.14,127.652C210.549,127.652 211.737,127.393 212.705,126.891C213.701,126.375 214.449,125.689 214.956,124.838C215.464,123.985 215.718,123.059 215.718,122.061C215.718,120.927 215.469,120.001 214.993,119.279C214.521,118.561 213.895,117.984 213.114,117.548C212.382,117.139 211.573,116.781 210.687,116.474C209.878,116.21 209.167,115.965 208.546,115.736C207.993,115.532 207.552,115.286 207.232,114.987C206.967,114.741 206.847,114.402 206.847,113.981C206.847,113.483 207.007,113.097 207.353,112.836C207.737,112.546 208.215,112.417 208.782,112.43C209.445,112.431 209.959,112.603 210.324,112.982C210.684,113.355 210.875,113.782 210.888,114.267L210.901,114.753L215.29,114.753L215.273,114.237C215.237,113.113 214.937,112.145 214.384,111.329C213.832,110.515 213.074,109.879 212.106,109.427C211.164,108.986 210.076,108.762 208.843,108.762C207.627,108.762 206.553,108.982 205.619,109.413C204.659,109.857 203.905,110.484 203.353,111.29C202.795,112.104 202.518,113.077 202.536,114.212C202.536,115.553 202.942,116.629 203.727,117.442C204.473,118.215 205.553,118.855 206.975,119.346C207.801,119.627 208.575,119.891 209.299,120.138C209.951,120.36 210.475,120.644 210.867,120.999C211.204,121.304 211.358,121.737 211.358,122.284C211.358,122.797 211.175,123.209 210.8,123.515C210.385,123.854 209.82,124.008 209.115,124.008C208.296,124.008 207.648,123.791 207.183,123.326C206.721,122.865 206.479,122.296 206.452,121.621L206.432,121.141L202.109,121.141L202.116,121.648C202.134,122.927 202.457,124.01 203.069,124.902C203.68,125.792 204.514,126.477 205.574,126.953C206.606,127.416 207.794,127.652 209.14,127.652ZM154.874,119.409L160.003,109.058L164.569,109.058L164.569,127.355L160.406,127.355L160.406,117.004L156.395,124.884L153.286,124.884L149.274,117.004L149.274,127.355L145.111,127.355L145.111,109.058L149.676,109.058L154.874,119.409ZM238.402,120.535L238.402,127.355L234.239,127.355L234.239,109.058L241.089,109.058C242.567,109.058 243.784,109.318 244.743,109.82C245.734,110.338 246.471,111.041 246.962,111.922C247.448,112.794 247.692,113.76 247.692,114.822C247.692,115.973 247.39,117.026 246.787,117.98C246.265,118.806 245.496,119.445 244.474,119.885L248.171,127.355L243.416,127.355L240.204,120.535L238.402,120.535ZM262.79,123.81L270.919,123.81L270.919,127.355L258.627,127.355L258.627,109.058L270.919,109.058L270.919,112.604L262.79,112.604L262.79,116.348L270.178,116.348L270.178,119.819L262.79,119.819L262.79,123.81ZM187.216,120.09L187.216,109.058L191.379,109.058L191.379,127.355L187.449,127.355L180.087,116.345L180.087,127.355L175.924,127.355L175.924,109.058L179.854,109.058L187.216,120.09ZM250.868,127.355L255.031,127.355L255.031,109.058L250.868,109.058L250.868,127.355ZM194.975,127.355L199.138,127.355L199.138,109.058L194.975,109.058L194.975,127.355ZM222.884,123.81L231.013,123.81L231.013,127.355L218.721,127.355L218.721,109.058L231.013,109.058L231.013,112.604L222.884,112.604L222.884,116.348L230.272,116.348L230.272,119.819L222.884,119.819L222.884,123.81ZM168.165,127.355L172.328,127.355L172.328,109.058L168.165,109.058L168.165,127.355ZM238.402,117.213L240.891,117.213C241.778,117.213 242.439,117.028 242.855,116.599C243.263,116.177 243.455,115.615 243.455,114.92C243.455,114.245 243.269,113.7 242.87,113.294C242.46,112.877 241.785,112.702 240.867,112.702L238.402,112.702L238.402,117.213Z" style="fill-rule:nonzero;"/>
    </g>
</svg>
